packages/astro-components-stencil/src/icons/local-drink.svg

<svg width="24" height="24" viewBox="0 0 24 24" fill="none" xmlns="http://www.w3.org/2000/svg">
<path fill-rule="evenodd" clip-rule="evenodd" d="M5.22999 2C4.03999 2 3.10999 3.04 3.23999 4.22L5.00999 20.23C5.12999 21.23 5.96999 22 6.99999 22H17C18.03 22 18.87 21.23 18.99 20.23L20.76 4.22C20.89 3.04 19.96 2 18.77 2H5.22999ZM12 19C10.34 19 8.99999 17.66 8.99999 16C8.99999 14.45 10.81 12.05 11.62 11.06C11.82 10.81 12.19 10.81 12.39 11.06C13.2 12.06 15.01 14.45 15.01 16C15 17.66 13.66 19 12 19ZM5.66999 8H18.33L18.64 5.11C18.71 4.52 18.24 4 17.65 4H6.34999C5.74999 4 5.28999 4.52 5.34999 5.11L5.66999 8Z" fill="black"/>
</svg>

<svg xmlns="http://www.w3.org/2000/svg" viewBox="0 0 24 24"><g xmlns="http://www.w3.org/2000/svg" id="local-drink" fill-rule="nonzero">
            <path d="M5.23 2C4.04 2 3.11 3.04 3.24 4.22l1.77 16.01C5.13 21.23 5.97 22 7 22h10c1.03 0 1.87-.77 1.99-1.77l1.77-16.01c.13-1.18-.8-2.22-1.99-2.22H5.23zM12 19c-1.66 0-3-1.34-3-3 0-1.55 1.81-3.95 2.62-4.94.2-.25.57-.25.77 0 .81 1 2.62 3.39 2.62 4.94A3.01 3.01 0 0112 19zm6.33-11H5.67l-.32-2.89c-.06-.59.4-1.11 1-1.11h11.3c.59 0 1.06.52.99 1.11L18.33 8z"/>
        </g></svg>
